public/images/footer-bg.svg

<svg xmlns="http://www.w3.org/2000/svg" width="900" height="600"><g stroke-linejoin="bevel"><path fill="#277297" stroke="#277297" d="m426 393-219 40 204 167Z"/><path fill="#277297" stroke="#277297" d="m207 433 27 167h177ZM426 393 255 195l-48 238Z"/><path fill="#246688" stroke="#246688" d="m426 393 14-211-185 13ZM0 253v143l207 37Z"/><path fill="#15384f" stroke="#15384f" d="M207 433 0 600h234Z"/><path fill="#246688" stroke="#246688" d="M0 396v204l207-167Z"/><path fill="#081a28" stroke="#081a28" d="M411 600h291L426 393ZM426 393l206-184-192-27Z"/><path fill="#205a7a" stroke="#205a7a" d="m702 600 22-205-298-2Z"/><path fill="#0c2435" stroke="#0c2435" d="M255 195 0 253l207 180Z"/><path fill="#297ea6" stroke="#297ea6" d="m724 395-92-186-206 184Z"/><path fill="#19435d" stroke="#19435d" d="M434 0 255 195l185-13Z"/><path fill="#297ea6" stroke="#297ea6" d="M434 0H247l8 195Z"/><path fill="#246688" stroke="#246688" d="M255 195 0 0v253Z"/><path fill="#00101c" stroke="#00101c" d="M643 0H434l6 182Z"/><path fill="#1d4e6b" stroke="#1d4e6b" d="M900 600V383l-176 12Z"/><path fill="#00101c" stroke="#00101c" d="m724 395 176-229-268 43Z"/><path fill="#277297" stroke="#277297" d="M632 209 643 0 440 182Z"/><path fill="#112e42" stroke="#112e42" d="M702 600h198L724 395Z"/><path fill="#15384f" stroke="#15384f" d="M900 166 643 0l-11 209Z"/><path fill="#246688" stroke="#246688" d="M247 0H0l255 195Z"/><path fill="#081a28" stroke="#081a28" d="M900 383V166L724 395Z"/><path fill="#205a7a" stroke="#205a7a" d="M900 166V0H643Z"/></g></svg>

<svg id="visual" viewBox="0 0 900 600" width="900" height="600" xmlns="http://www.w3.org/2000/svg" xmlns:xlink="http://www.w3.org/1999/xlink" version="1.1"><g stroke-width="1" stroke-linejoin="bevel"><path d="M426 393L207 433L411 600Z" fill="#277297" stroke="#277297"></path><path d="M207 433L234 600L411 600Z" fill="#277297" stroke="#277297"></path><path d="M426 393L255 195L207 433Z" fill="#277297" stroke="#277297"></path><path d="M426 393L440 182L255 195Z" fill="#246688" stroke="#246688"></path><path d="M0 253L0 396L207 433Z" fill="#246688" stroke="#246688"></path><path d="M207 433L0 600L234 600Z" fill="#15384f" stroke="#15384f"></path><path d="M0 396L0 600L207 433Z" fill="#246688" stroke="#246688"></path><path d="M411 600L702 600L426 393Z" fill="#081a28" stroke="#081a28"></path><path d="M426 393L632 209L440 182Z" fill="#081a28" stroke="#081a28"></path><path d="M702 600L724 395L426 393Z" fill="#205a7a" stroke="#205a7a"></path><path d="M255 195L0 253L207 433Z" fill="#0c2435" stroke="#0c2435"></path><path d="M724 395L632 209L426 393Z" fill="#297ea6" stroke="#297ea6"></path><path d="M434 0L255 195L440 182Z" fill="#19435d" stroke="#19435d"></path><path d="M434 0L247 0L255 195Z" fill="#297ea6" stroke="#297ea6"></path><path d="M255 195L0 0L0 253Z" fill="#246688" stroke="#246688"></path><path d="M643 0L434 0L440 182Z" fill="#00101c" stroke="#00101c"></path><path d="M900 600L900 383L724 395Z" fill="#1d4e6b" stroke="#1d4e6b"></path><path d="M724 395L900 166L632 209Z" fill="#00101c" stroke="#00101c"></path><path d="M632 209L643 0L440 182Z" fill="#277297" stroke="#277297"></path><path d="M702 600L900 600L724 395Z" fill="#112e42" stroke="#112e42"></path><path d="M900 166L643 0L632 209Z" fill="#15384f" stroke="#15384f"></path><path d="M247 0L0 0L255 195Z" fill="#246688" stroke="#246688"></path><path d="M900 383L900 166L724 395Z" fill="#081a28" stroke="#081a28"></path><path d="M900 166L900 0L643 0Z" fill="#205a7a" stroke="#205a7a"></path></g></svg>
